www/static/img/overview/input-row.svg

<svg width="141" height="44" viewBox="0 0 141 44" fill="none" xmlns="http://www.w3.org/2000/svg">
<path d="M4 1H98V43H4C2.34314 43 1 41.6569 1 40V4C1 2.34315 2.34315 1 4 1Z" fill="white" stroke="#005A7A" stroke-width="2"/>
<path d="M97 0H137C139.209 0 141 1.79086 141 4V40C141 42.2091 139.209 44 137 44H97V0Z" fill="#005A7A"/>
<path d="M126.599 14.2001C126.16 13.8681 125.532 13.9591 125.201 14.4001L116.82 25.5751L112.624 22.2191C112.194 21.8741 111.565 21.9451 111.218 22.3751C110.873 22.8061 110.945 23.4361 111.374 23.7811L117.18 28.4251L126.799 15.6001C127.131 15.1581 127.041 14.5311 126.599 14.2001Z" fill="white"/>
</svg>

<svg fill="none" height="44" viewBox="0 0 141 44" width="141" xmlns="http://www.w3.org/2000/svg"><path d="m4 1h94v42h-94c-1.65686 0-3-1.3431-3-3v-36c0-1.65685 1.34315-3 3-3z" fill="#fff" stroke="#005a7a" stroke-width="2"/><path d="m97 0h40c2.209 0 4 1.79086 4 4v36c0 2.2091-1.791 4-4 4h-40z" fill="#005a7a"/><path d="m126.599 14.2001c-.439-.332-1.067-.241-1.398.2l-8.381 11.175-4.196-3.356c-.43-.345-1.059-.274-1.406.156-.345.431-.273 1.061.156 1.406l5.806 4.644 9.619-12.825c.332-.442.242-1.069-.2-1.4z" fill="#fff"/></svg>
